public/images/services/dark/1.svg

<svg width="64" height="64" viewBox="0 0 64 64" fill="none" xmlns="http://www.w3.org/2000/svg">
<g clip-path="url(#clip0_3368_6534)">
<path d="M32 64C49.6731 64 64 49.6731 64 32C64 14.3269 49.6731 0 32 0C14.3269 0 0 14.3269 0 32C0 49.6731 14.3269 64 32 64Z" fill="white"/>
<path d="M30.0372 41.8284L26.3581 45.4942C24.8372 47.0151 22.354 47.0151 20.8331 45.4942L17.154 41.8151C15.6457 40.3075 15.6457 37.8243 17.154 36.3034L20.8331 32.6243L30.0372 41.8284ZM47.4958 31.7014L30.9468 15.1651C30.6611 14.8661 30.2447 14.7233 29.8416 14.788C29.4259 14.8534 29.0749 15.1003 28.88 15.4641L21.431 29.5432L33.1437 41.2565L47.1834 33.7682C47.5478 33.5866 47.7954 33.2223 47.8601 32.8192C47.9249 32.4034 47.7814 32.0003 47.4958 31.7014ZM18.9999 47.3274L15.3207 43.6483C14.8009 43.1284 14.3978 42.5565 14.0988 41.9325C13.4488 43.7524 13.8646 45.8712 15.3207 47.3274C16.3091 48.3151 17.6091 48.8616 18.9999 48.8616C19.5978 48.8616 20.1831 48.7575 20.729 48.5626C20.0916 48.263 19.507 47.8473 18.9999 47.3274ZM34.1707 45.9493L31.8831 43.6616L28.1906 47.3401C27.879 47.6524 27.5406 47.9253 27.1769 48.1596L29.5687 50.5514C30.18 51.1626 30.9988 51.5003 31.8697 51.5003C32.7406 51.5003 33.5601 51.1626 34.1707 50.5514C35.4314 49.2774 35.4314 47.2233 34.1707 45.9493ZM38.4999 16.401V13.801C38.4999 13.0831 37.9184 12.501 37.1999 12.501C36.4813 12.501 35.8999 13.0831 35.8999 13.801V16.401C35.8999 17.1189 36.4813 17.701 37.1999 17.701C37.9184 17.701 38.4999 17.1189 38.4999 16.401ZM50.1999 25.5003C50.1999 24.7824 49.6184 24.2003 48.8999 24.2003H46.2999C45.5813 24.2003 44.9999 24.7824 44.9999 25.5003C44.9999 26.2183 45.5813 26.8003 46.2999 26.8003H48.8999C49.6184 26.8003 50.1999 26.2183 50.1999 25.5003ZM43.319 21.2195L45.919 18.6195C46.4268 18.1117 46.4268 17.289 45.919 16.7812C45.4112 16.2734 44.5885 16.2734 44.0807 16.7812L41.4807 19.3812C40.9729 19.889 40.9729 20.7117 41.4807 21.2195C41.7346 21.4734 42.0672 21.6003 42.3999 21.6003C42.7325 21.6003 43.0651 21.4734 43.319 21.2195Z" fill="#6C4796"/>
</g>
<defs>
<clipPath id="clip0_3368_6534">
<rect width="64" height="64" fill="white"/>
</clipPath>
</defs>
</svg>

<svg width="64" height="64" fill="none" xmlns="http://www.w3.org/2000/svg"><g clip-path="url(#a)"><path d="M32 64c17.673 0 32-14.327 32-32C64 14.327 49.673 0 32 0 14.327 0 0 14.327 0 32c0 17.673 14.327 32 32 32Z" fill="#fff"/><path d="m30.037 41.828-3.679 3.666a3.915 3.915 0 0 1-5.525 0l-3.679-3.679c-1.508-1.508-1.508-3.99 0-5.512l3.68-3.679 9.203 9.204Zm17.459-10.127-16.55-16.536a1.261 1.261 0 0 0-1.104-.377 1.31 1.31 0 0 0-.962.676l-7.449 14.08 11.713 11.713 14.04-7.489c.364-.181.611-.546.676-.949a1.317 1.317 0 0 0-.364-1.118ZM19 47.327l-3.68-3.679a6.2 6.2 0 0 1-1.221-1.716 5.178 5.178 0 0 0 1.222 5.395 5.166 5.166 0 0 0 5.408 1.236 5.95 5.95 0 0 1-1.73-1.236Zm15.17-1.378-2.287-2.287-3.692 3.678a6.08 6.08 0 0 1-1.014.82l2.392 2.391c.611.612 1.43.95 2.3.95.872 0 1.691-.338 2.302-.95a3.273 3.273 0 0 0 0-4.602Zm4.33-29.548v-2.6a1.3 1.3 0 1 0-2.6 0v2.6a1.3 1.3 0 1 0 2.6 0Zm11.7 9.1a1.3 1.3 0 0 0-1.3-1.3h-2.6a1.3 1.3 0 1 0 0 2.6h2.6a1.3 1.3 0 0 0 1.3-1.3Zm-6.881-4.282 2.6-2.6a1.3 1.3 0 1 0-1.838-1.838l-2.6 2.6a1.3 1.3 0 1 0 1.838 1.838Z" fill="#6C4796"/></g><defs><clipPath id="a"><path fill="#fff" d="M0 0h64v64H0z"/></clipPath></defs></svg>
